Cool Icons Themes/Cool-Dark-Icons/applets/48/weather-many-clouds-wind-symbolic.svg

<?xml version="1.0" encoding="UTF-8" standalone="no"?>
<svg xmlns="http://www.w3.org/2000/svg" xmlns:xlink="http://www.w3.org/1999/xlink" width="48" height="48">
 <style id="current-color-scheme" type="text/css">
  .ColorScheme-Text {
    color:#232629;
  }
 </style>
 <g id="weather-many-clouds-wind-symbolic" class="ColorScheme-Text" fill="none" stroke="currentColor" stroke-width="2" stroke-linejoin="bevel">
  <path id="cloud" d="m34 39 h 2 a 7 7 0 0 0 0.95 -13.92 h -3 a 9 9 0 0 0 -8.95-8.08 a 9 9 0 0 0 -8.36 12.31 a 5 5 0 1 0 -1.63 9.69h1"/>
  <path id="wind1" d="m18 32 h11 a3 3 0 1 0 -3 -3"/>
  <path id="wind2" d="m15 35 h22 a3 3 0 1 0 -3 -3"/>
  <path id="wind3" d="m17 38 h12 a3 3 0 1 1 -3 3"/>
  <path d="m19 12s2.5-3 6-3h7.5c1.5 0 5.5 2 5.5 6 5.8099 0.82999 6.4532 7.1711 2.7875 9.8749-0.75085 0.55383-1.3098 0.71247-2.4149 0.88248"/>
  <path d="m26 17v-0.57812c0-2.493-2.007-4.5-4.5-4.5h-6c-2.493 0-4.5 2.007-4.5 4.5v0.5h-2c-3.878 0-7 3.122-7 7s3.122 7 7 7h2.5"/>
  <rect width="48" height="48" fill="none"  stroke="none"/>
 </g>
</svg>

<?xml version="1.0" encoding="UTF-8" standalone="no"?>
<svg
   width="48"
   height="48"
   version="1.1"
   id="svg2"
   sodipodi:docname="weather-many-clouds-wind-symbolic.svg"
   inkscape:version="1.4 (unknown)"
   xmlns:inkscape="http://www.inkscape.org/namespaces/inkscape"
   xmlns:sodipodi="http://sodipodi.sourceforge.net/DTD/sodipodi-0.dtd"
   xmlns="http://www.w3.org/2000/svg"
   xmlns:svg="http://www.w3.org/2000/svg">
  <defs
     id="defs2" />
  <sodipodi:namedview
     id="namedview2"
     pagecolor="#ffffff"
     bordercolor="#000000"
     borderopacity="0.25"
     inkscape:showpageshadow="2"
     inkscape:pageopacity="0.0"
     inkscape:pagecheckerboard="0"
     inkscape:deskcolor="#d1d1d1"
     inkscape:zoom="8.0520833"
     inkscape:cx="37.443726"
     inkscape:cy="32.72445"
     inkscape:window-width="1920"
     inkscape:window-height="996"
     inkscape:window-x="0"
     inkscape:window-y="0"
     inkscape:window-maximized="1"
     inkscape:current-layer="svg2" />
  <style
     id="current-color-scheme"
     type="text/css">
  .ColorScheme-Text {
    color:#232629;
  }
 </style>
  <path
     id="cloud"
     d="m 34,39 h 2 a 7,7 0 0 0 0.95,-13.92 h -3 A 9,9 0 0 0 25,17 9,9 0 0 0 16.64,29.31 5,5 0 1 0 15.01,39 h 1"
     style="color:#232629;fill:none;stroke:#f1f2f3;stroke-width:2;stroke-linejoin:bevel;stroke-opacity:1" />
  <path
     id="wind1"
     d="M 18,32 H 29 A 3,3 0 1 0 26,29"
     style="color:#232629;fill:none;stroke:#f2f3f4;stroke-width:2;stroke-linejoin:bevel;stroke-opacity:1" />
  <path
     id="wind2"
     d="M 15,35 H 37 A 3,3 0 1 0 34,32"
     style="color:#232629;fill:none;stroke:#f2f3f4;stroke-width:2;stroke-linejoin:bevel;stroke-opacity:1" />
  <path
     id="wind3"
     d="m 17,38 h 12 a 3,3 0 1 1 -3,3"
     style="color:#232629;fill:none;stroke:#f2f3f4;stroke-width:2;stroke-linejoin:bevel;stroke-opacity:1" />
  <path
     d="m 19,12 c 0,0 2.5,-3 6,-3 h 7.5 c 1.5,0 5.5,2 5.5,6 5.8099,0.82999 6.4532,7.1711 2.7875,9.8749 -0.75085,0.55383 -1.3098,0.71247 -2.4149,0.88248"
     id="path1"
     style="color:#232629;fill:none;stroke:#f1f2f4;stroke-width:2;stroke-linejoin:bevel;stroke-opacity:1" />
  <path
     d="m 26,17 v -0.57812 c 0,-2.493 -2.007,-4.5 -4.5,-4.5 h -6 c -2.493,0 -4.5,2.007 -4.5,4.5 v 0.5 H 9 c -3.878,0 -7,3.122 -7,7 0,3.878 3.122,7 7,7 h 2.5"
     id="path2"
     style="color:#232629;fill:none;stroke:#f1f2f3;stroke-width:2;stroke-linejoin:bevel;stroke-opacity:1" />
  <rect
     width="48"
     height="48"
     fill="none"
     stroke="none"
     id="rect2"
     x="0"
     y="0"
     style="color:#232629;stroke-width:2;stroke-linejoin:bevel" />
</svg>
